svg/emoji_u1f9e2.svg

<?xml version="1.0" encoding="UTF-8" standalone="no"?>
<!-- Generator: Adobe Illustrator 25.2.3, SVG Export Plug-In . SVG Version: 6.00 Build 0)  -->

<svg
   version="1.1"
   id="Layer_1"
   x="0px"
   y="0px"
   viewBox="0 0 128 128"
   style="enable-background:new 0 0 128 128;"
   xml:space="preserve"
   sodipodi:docname="emoji_u1f9e2.svg"
   inkscape:version="1.2.2 (732a01da63, 2022-12-09)"
   xmlns:inkscape="http://www.inkscape.org/namespaces/inkscape"
   xmlns:sodipodi="http://sodipodi.sourceforge.net/DTD/sodipodi-0.dtd"
   xmlns="http://www.w3.org/2000/svg"
   xmlns:svg="http://www.w3.org/2000/svg"><defs
   id="defs8239">
	
	
	
	
	
	
	
</defs><sodipodi:namedview
   id="namedview8237"
   pagecolor="#ffffff"
   bordercolor="#000000"
   borderopacity="0.25"
   inkscape:showpageshadow="2"
   inkscape:pageopacity="0.0"
   inkscape:pagecheckerboard="0"
   inkscape:deskcolor="#d1d1d1"
   showgrid="false"
   inkscape:zoom="4.2421875"
   inkscape:cx="59.87477"
   inkscape:cy="56.810313"
   inkscape:window-width="1366"
   inkscape:window-height="697"
   inkscape:window-x="-8"
   inkscape:window-y="-8"
   inkscape:window-maximized="1"
   inkscape:current-layer="Layer_1" />
<path
   id="path8218"
   style="fill:#b5b5b5;fill-opacity:1"
   d="M 79.240234 21.986328 C 62.75256 21.83241 47.650777 31.725708 43.769531 36.720703 C 36.489539 46.080694 32.330078 67.910156 32.330078 67.910156 C 32.330078 67.910156 38.837125 67.751468 49.324219 70.083984 C 50.265163 65.999288 51.290311 61.554931 51.742188 59.521484 C 52.920823 54.217622 55.042443 49.621169 57.517578 43.138672 C 59.992715 36.656173 63.174954 33.472883 70.128906 29.347656 C 75.433304 26.20098 80.560832 23.58075 83.234375 22.232422 C 81.89717 22.082658 80.564641 21.998692 79.240234 21.986328 z " /><path
   style="fill:#b5b5b5;fill-opacity:1"
   d="m 97.1,42.89 c -0.33,-1.56 -7.05,-19.4 -7.05,-19.4 0,0 13.19,3.42 22.99,13.75 4.67,4.92 10.09,11.17 10.79,18.19 1.04,10.39 -3.11,32.2 -3.12,32.23 -0.14,0.73 -7.38,0.78 -7.95,0.79 -3.26,0.07 -14.55,-0.36 -21.04,-3.01 0.01,0 6.63,-36.55 5.38,-42.55 z"
   id="path8220" /><path
   style="fill:#005792;fill-opacity:1"
   d="m 5.26,93.26 c -0.09,1.02 -0.03,4.01 3.65,2.27 3.68,-1.74 11.31,-7.5 11.31,-7.5 0,0 -7.42,-2.77 -11.33,-0.44 -3.91,2.33 -3.54,4.65 -3.63,5.67 z"
   id="path8226" /><path
   id="path8789"
   style="fill:#37b4e2;fill-opacity:1"
   d="M 83.234375 22.232422 C 80.560832 23.58075 75.433304 26.20098 70.128906 29.347656 C 63.174954 33.472883 59.992715 36.656173 57.517578 43.138672 C 55.042443 49.621169 52.920823 54.217622 51.742188 59.521484 C 51.290311 61.554931 50.265163 65.999288 49.324219 70.083984 C 55.862996 71.538325 63.939953 73.955963 72.980469 78 C 79.940462 81.119997 92 85.619141 92 85.619141 C 92 85.619141 97.169453 56.190459 97.439453 46.230469 C 97.619453 39.870475 92.489295 28.09023 90.279297 23.490234 L 88.480469 23.199219 C 86.733108 22.739154 84.979948 22.427922 83.234375 22.232422 z " /><path
   style="fill:#005792;fill-opacity:1"
   d="M 7.56,86.27 32.34,67.91 c 0,0 5.16,-0.98 17,0.97 14.38,2.37 49.52,18.28 49.52,18.28 l -17.42,14.5 c 0,0 -10.96,8.52 -22.04,3.42 C 42.84,97.45 24.93,87.52 19.74,86.35 9.63,84.05 7.56,86.27 7.56,86.27 Z"
   id="path8228" /><g
   id="g8232"
   style="fill:#2f2f2f;fill-opacity:1">
		<path
   style="fill:#2f2f2f;fill-opacity:1"
   d="m 62.94,108.11 c -7.83,-1.94 -34.43,-16.84 -43.1,-19.5 -2.59,-0.79 -7.01,-1.69 -9.77,-0.23 -2.4,1.27 -4.45,3.77 -3.8,6.64 0.1,0.44 0.31,0.92 0.74,1.04 C 6.04,96.44 4.9,95.82 4.4,94.91 3.9,94 3.93,92.89 4.14,91.87 4.57,89.79 5.8,87.5 7.56,86.27 c 2.33,-1.63 6.43,-2.73 13.35,-0.59 12.14,3.75 36.32,18.07 42.57,19.36 9.19,1.89 17.269358,-4.07265 18.85,-4.97 1.580642,-0.904257 1.461215,-0.186374 0.365304,0.60744 C 81.606417,101.47125 72.83,110.56 62.94,108.11 Z"
   id="path8230"
   sodipodi:nodetypes="cccccsccccccc" />
	</g>
<path
   id="path9571"
   style="fill:#0f60b2;fill-opacity:1;stroke-width:5.6693;stroke-linecap:round"
   d="m 87.243503,18.483449 c -4.608335,-0.841898 -6.98412,0.477873 -7.36648,2.570824 -0.382361,2.092953 1.373316,4.167498 5.981649,5.009395 4.608333,0.841896 6.984119,-0.477871 7.36648,-2.570823 0.382363,-2.092953 -1.373314,-4.167499 -5.981649,-5.009396 z"
   sodipodi:nodetypes="zzzzz" /></svg>

<?xml version="1.0" encoding="UTF-8" standalone="no"?>
<!DOCTYPE svg PUBLIC "-//W3C//DTD SVG 1.1//EN" "http://www.w3.org/Graphics/SVG/1.1/DTD/svg11.dtd">
<svg width="100%" height="100%" viewBox="0 0 128 128" version="1.1" xmlns="http://www.w3.org/2000/svg" xmlns:xlink="http://www.w3.org/1999/xlink" xml:space="preserve" xmlns:serif="http://www.serif.com/" style="fill-rule:evenodd;clip-rule:evenodd;stroke-miterlimit:10;">
    <g>
        <path d="M32.33,67.91C32.33,67.91 36.49,46.08 43.77,36.72C48.37,30.8 68.73,18 88.48,23.2L90.28,23.49C92.49,28.09 97.62,39.87 97.44,46.23C97.17,56.19 92,85.62 92,85.62C92,85.62 79.94,81.12 72.98,78C49.44,67.47 32.33,67.91 32.33,67.91Z" style="fill:rgb(64,192,231);fill-rule:nonzero;"/>
        <path d="M97.1,42.89C96.77,41.33 90.05,23.49 90.05,23.49C90.05,23.49 103.24,26.91 113.04,37.24C117.71,42.16 123.13,48.41 123.83,55.43C124.87,65.82 120.72,87.63 120.71,87.66C120.57,88.39 113.33,88.44 112.76,88.45C109.5,88.52 98.21,88.09 91.72,85.44C91.73,85.44 98.35,48.89 97.1,42.89Z" style="fill:rgb(29,163,200);fill-rule:nonzero;"/>
        <path d="M48.84,71.16C48.84,70.72 55.23,41.79 61.91,35.56C68.13,29.75 83.56,22.27 83.56,22.27L90.14,23.67C90.14,23.67 96.81,37.41 97.31,44.85C98,55.1 92.15,85.79 92.15,85.79" style="fill:none;fill-rule:nonzero;stroke:rgb(12,127,159);stroke-width:2.08px;"/>
        <path d="M82.03,21.18C82.29,19.94 84.82,19.04 87.68,19.64C90.54,20.24 92.65,22.12 92.39,23.36C92.13,24.6 89.67,23.98 86.81,23.37C83.95,22.76 81.77,22.42 82.03,21.18Z" style="fill:rgb(12,127,159);fill-rule:nonzero;"/>
        <path d="M5.26,93.26C5.17,94.28 5.23,97.27 8.91,95.53C12.59,93.79 20.22,88.03 20.22,88.03C20.22,88.03 12.8,85.26 8.89,87.59C4.98,89.92 5.35,92.24 5.26,93.26Z" style="fill:rgb(33,41,119);fill-rule:nonzero;"/>
        <path d="M7.56,86.27L32.34,67.91C32.34,67.91 37.5,66.93 49.34,68.88C63.72,71.25 98.86,87.16 98.86,87.16L81.44,101.66C81.44,101.66 70.48,110.18 59.4,105.08C42.84,97.45 24.93,87.52 19.74,86.35C9.63,84.05 7.56,86.27 7.56,86.27Z" style="fill:rgb(129,215,238);fill-rule:nonzero;"/>
        <g>
            <path d="M62.94,108.11C55.11,106.17 28.51,91.27 19.84,88.61C17.25,87.82 12.83,86.92 10.07,88.38C7.67,89.65 5.62,92.15 6.27,95.02C6.37,95.46 6.58,95.94 7.01,96.06C6.04,96.44 4.9,95.82 4.4,94.91C3.9,94 3.93,92.89 4.14,91.87C4.57,89.79 5.8,87.5 7.56,86.27C9.89,84.64 13.99,83.54 20.91,85.68C33.05,89.43 57.23,103.75 63.48,105.04C72.67,106.93 80.08,101.37 82.33,100.07C84.58,98.76 84.41,99.8 82.85,100.95C81.3,102.1 72.83,110.56 62.94,108.11Z" style="fill:rgb(12,127,159);fill-rule:nonzero;"/>
        </g>
    </g>
</svg>
